svgs/thin/oil-temperature.svg

<svg xmlns="http://www.w3.org/2000/svg" viewBox="0 0 576 512"><!--! Font Awesome Pro 6.4.2 by @fontawesome - https://fontawesome.com License - https://fontawesome.com/license (Commercial License) Copyright 2023 Fonticons, Inc. --><path d="M280 24c0-13.3 10.7-24 24-24h72c4.4 0 8 3.6 8 8s-3.6 8-8 8H304c-4.4 0-8 3.6-8 8V96h80c4.4 0 8 3.6 8 8s-3.6 8-8 8H296V224.4c40.4 4 72 38.1 72 79.6c0 44.2-35.8 80-80 80s-80-35.8-80-80c0-41.5 31.6-75.6 72-79.6V104 24zM224 304a64 64 0 1 0 128 0 64 64 0 1 0 -128 0zm156 63.9c3.5-5.1 6.7-10.5 9.3-16.1c20.6-2 40.6-15.2 56.5-29.7c10.1-9.2 19.7-19.5 27.6-30.7c1.5-2.1 3.9-3.4 6.6-3.4s5.1 1.3 6.6 3.4c7.3 10.3 15.9 19.6 25 28.3c15.7 14.8 36.1 29.2 57.4 31.9c4.4 .6 7.5 4.6 6.9 8.9s-4.6 7.5-8.9 6.9c-26.5-3.3-50-20.7-66.4-36.1c-8.8-8.3-15.9-16.4-20.6-22.2c-5.2 6.4-13.3 15.6-23.4 24.8c-18 16.3-43.9 34.1-72.6 34.1c-1.3 0-2.7 0-4-.1zM192 368c-28.7 0-54.6-17.8-72.6-34.1c-10.2-9.2-18.2-18.4-23.4-24.8c-4.7 5.8-11.8 13.9-20.6 22.2C59 346.7 35.5 364.1 9 367.4c-4.4 .6-8.4-2.6-8.9-6.9s2.6-8.4 6.9-8.9c21.3-2.7 41.7-17.1 57.4-31.9c9.1-8.6 17.7-18 25-28.3c1.5-2.1 3.9-3.4 6.6-3.4s5.1 1.3 6.6 3.4c7.9 11.2 17.5 21.5 27.6 30.7c15.9 14.4 35.9 27.7 56.5 29.7c2.7 5.7 5.8 11.1 9.3 16.1c-1.3 .1-2.7 .1-4 .1zm102.6 67.4c8 11.2 17.5 21.4 27.6 30.7C339.5 481.8 361.5 496 384 496s44.6-14.2 61.8-29.9c10.1-9.2 19.7-19.5 27.6-30.7c1.5-2.1 3.9-3.4 6.6-3.4s5.1 1.3 6.6 3.4c7.3 10.3 15.9 19.6 25 28.3c15.7 14.8 36.1 29.2 57.4 31.9c4.4 .6 7.5 4.6 6.9 8.9s-4.6 7.5-8.9 6.9c-26.5-3.3-50-20.7-66.4-36.1c-8.8-8.3-15.9-16.4-20.6-22.2c-5.2 6.4-13.3 15.6-23.4 24.8c-18 16.3-43.9 34.1-72.6 34.1s-54.6-17.8-72.6-34.1c-10.2-9.2-18.2-18.4-23.4-24.8l0 0 0 0c-5.2 6.4-13.3 15.6-23.4 24.8c-18 16.3-43.9 34.1-72.6 34.1s-54.6-17.8-72.6-34.1c-10.2-9.2-18.2-18.4-23.4-24.8c-4.7 5.8-11.8 13.9-20.6 22.2C59 490.7 35.5 508.1 9 511.4c-4.4 .6-8.4-2.6-8.9-6.9s2.6-8.4 6.9-8.9c21.3-2.7 41.7-17.1 57.4-31.9c9.1-8.6 17.7-18 25-28.3c1.5-2.1 3.9-3.4 6.6-3.4s5.1 1.3 6.6 3.4c7.9 11.2 17.5 21.5 27.6 30.7C147.4 481.8 169.5 496 192 496s44.6-14.2 61.8-29.9c10.1-9.2 19.6-19.5 27.6-30.7c3-4.3 10.2-4.3 13.2 0z"/></svg>

<svg xmlns="http://www.w3.org/2000/svg" viewBox="0 0 576 512"><!--! Font Awesome Pro 6.1.1 by @fontawesome - https://fontawesome.com License - https://fontawesome.com/license (Commercial License) Copyright 2022 Fonticons, Inc. --><path d="M280 24C280 10.75 290.7 0 304 0H376C380.4 0 384 3.582 384 8C384 12.42 380.4 16 376 16H304C299.6 16 296 19.58 296 24V96H376C380.4 96 384 99.58 384 104C384 108.4 380.4 112 376 112H296V224.4C336.4 228.4 368 262.5 368 304C368 348.2 332.2 384 288 384C243.8 384 208 348.2 208 304C208 262.5 239.6 228.4 280 224.4V24zM288 368C323.3 368 352 339.3 352 304C352 268.7 323.3 240 288 240C252.7 240 224 268.7 224 304C224 339.3 252.7 368 288 368zM380 367.9C383.5 362.8 386.7 357.4 389.3 351.7C409.1 349.7 429.1 336.5 445.8 322.1C455.1 312.9 465.5 302.6 473.5 291.4C474.1 289.3 477.4 287.1 480 288C482.6 288 485.1 289.3 486.6 291.4C493.9 301.7 502.5 311 511.6 319.7C527.3 334.5 547.7 348.9 569 351.6C573.4 352.1 576.5 356.1 575.9 360.5C575.4 364.9 571.4 367.1 567 367.4C540.5 364.1 516.1 346.7 500.6 331.3C491.8 322.1 484.7 314.9 480 309.1C474.8 315.5 466.8 324.7 456.6 333.9C438.7 350.2 412.7 368 384 368C382.7 368 381.3 367.1 380 367.9V367.9zM119.4 333.9C109.2 324.7 101.2 315.5 95.98 309.1C91.29 314.9 84.23 322.1 75.4 331.3C59.03 346.7 35.48 364.1 9.001 367.4C4.618 367.1 .6163 364.9 .064 360.5C-.4884 356.1 2.617 352.1 7.001 351.6C28.3 348.9 48.74 334.5 64.42 319.7C73.56 311 82.16 301.7 89.43 291.4C90.93 289.3 93.37 288 95.98 288C98.59 287.1 101 289.3 102.5 291.4C110.5 302.6 120 312.9 130.2 322.1C146 336.5 166 349.7 186.7 351.7C189.3 357.4 192.5 362.8 195.1 367.9C194.7 367.1 193.3 368 191.1 368C163.3 368 137.4 350.2 119.4 333.9V333.9zM294.6 435.4C302.6 446.6 312.1 456.9 322.2 466.1C339.5 481.8 361.5 496 384 496C406.5 496 428.6 481.8 445.8 466.1C455.1 456.9 465.5 446.6 473.5 435.4C474.1 433.3 477.4 432 480 432C482.6 432 485.1 433.3 486.6 435.4C493.9 445.7 502.5 455 511.6 463.7C527.3 478.5 547.7 492.9 569 495.6C573.4 496.1 576.5 500.1 575.9 504.5C575.4 508.9 571.4 511.1 567 511.4C540.5 508.1 516.1 490.7 500.6 475.3C491.8 466.1 484.7 458.9 480 453.1C474.8 459.5 466.8 468.7 456.6 477.9C438.7 494.2 412.7 512 384 512C355.3 512 329.4 494.2 311.4 477.9C301.3 468.7 293.2 459.5 288 453.1L288 453.1L287.1 453.1C282.8 459.5 274.7 468.7 264.6 477.9C246.6 494.2 220.7 512 191.1 512C163.3 512 137.4 494.2 119.4 477.9C109.2 468.7 101.2 459.5 95.98 453.1C91.29 458.9 84.23 466.1 75.4 475.3C59.03 490.7 35.48 508.1 9.001 511.4C4.617 511.1 .616 508.9 .0637 504.5C-.4887 500.1 2.617 496.1 7.001 495.6C28.3 492.9 48.74 478.5 64.42 463.7C73.56 455 82.16 445.7 89.43 435.4C90.93 433.3 93.37 432 95.98 432C98.59 432 101 433.3 102.5 435.4C110.5 446.6 120 456.9 130.2 466.1C147.4 481.8 169.5 496 191.1 496C214.5 496 236.6 481.8 253.8 466.1C263.9 456.9 273.4 446.6 281.4 435.4C284.4 431.1 291.6 431.1 294.6 435.4H294.6z"/></svg>
